!!!COM: Scriabin, Alexander
!!!OTL@@FR: Prélude en do dièse mineur
!!!OTL@@EN: Prelude in C# Minor
!!!OPR@@FR: 24 Préludes
!!!OPR@@EN: 24 Preludes
!!!OPS: 11
!!!ONM: 10
!!!ODT: 1894
!!!AGN: Prelude
**kern	**kern	**dynam
*staff2	*staff1	*staff1/2
*Ipiano	*Ipiano	*
*clefF4	*clefG2	*
*k[f#c#g#d#]	*k[f#c#g#d#]	*
*c#:	*c#:	*
*M6/8	*M6/8	*
=1	=1	=1
*	*^	*
8CC#L	4.rc	8raa	.
8A 8g#	.	8cc#L 8gg#	.
8EJ 8c#	.	8g#J 8ee	.
8AL 8f##X	4rc	8cc#L 8ff##X	.
8D#J 8c#	.	8f##XJ 8dd#	.
8r	8d#	8raa	.
=2	=2	=2	=2
*^	*	*	*
8CC#L	4.rc	4.e	8raa	.
8E 8c#	.	.	8g#L 8ee	.
8G#J 8g#	.	.	8eJ 8cc#	.
8F##XL	4.c#	4.e	8a#XL	.
8G#	.	.	8g#	.
8AA#XJ	.	.	8a#J	.
*v	*v	*	*	*
*	*v	*v	*
=3	=3	=3
8DD#L	8r	.
8BB 8G#	8d#L 8b	.
8D#J 8d#	8BJ 8g#	.
8DD#L	8r	.
8C# 8F##X	8c#L 8an	.
8EJ 8c#	8AJ 8e	.
=4	=4	=4
*^	*^	*
8rEE	8GGG# 8GG#	4.rc	8raa	.
[4GG#	8D#L	.	8B#XL 8g#	.
.	8EJ	.	8AJ 8c#	.
4.GG#]	8G#L	8rc	8c#L 8g#	.
.	8D#	4d#	8B#	.
.	8G#J	.	8b#XJ	.
=5	=5	=5	=5	=5
8FF#	8A	4.rc	8c# 8f# 8cc#	.
*clefG2	*	*	*	*
8rc	8dnL 8cc#	.	8ff#L 8ccc#	.
8rc	8AJ 8f#	.	8cc#J 8aa	.
4.rc	8dL 8b#X	4rc	8ff#L 8bb#X	.
.	8G#J 8f#	.	8b#XJ 8gg#	.
.	8raa	8g#	8raa	.
*clefF4	*	*	*	*
=6	=6	=6	=6	=6
8FF#L	4.rc	4.a	8raa	.
8A 8f#	.	.	8cc#L 8aa	.
8c#J 8cc#	.	.	8aJ 8ff#	.
8B#XL	4.f#	4.a	8dd#XL	.
8c#	.	.	8cc#	.
8D#J	.	.	8dd#J	.
*v	*v	*	*	*
*	*v	*v	*
=7	=7	=7
8GG#L	8r	.
8E 8c#	8g#L 8ee	.
8G#J 8g#	8eJ 8cc#	.
8GG#L	8r	.
8F# 8B#X	8f#L 8ddn	.
8AJ 8f#	8dnJ 8a	.
=8	=8	=8
*^	*	*
8rEE	8CC# 8C#	8r	.
[4C#	8G#L	8eL 8cc#	.
.	8AJ	8d#XJ 8f#	.
4C#]	8c#L	8f#L 8cc#	.
.	8G#J	8e 8g#	.
8rEE	8rc	8eeJ	.
*v	*v	*	*
=9	=9	=9
8EEL 8E	8r	.
8BB 8B	8bL 8gg#	.
8G#J 8d#	8g#J 8dd#	.
8EL 8c#	8g#L 8ee	.
8G# 8g#	8e 8cc#	.
8BJ 8g#	8eJ 8b	.
=10	=10	=10
*	*^	*
8BBBL 8BB	4.rc	8raa	.
8BB 8B	.	8AL 8d# 8f#	.
8BBJ 8B	.	8AJ 8d# 8f##X	.
4.BB 4.B	4d#	4.G# 4.g#	.
.	8e	.	.
*	*v	*v	*
=11	=11	=11
8EEL 8E	8r	.
8BB 8B	8bL 8gg#	.
8G#J 8d#	8g#J 8dd#	.
8EL 8c#	8g#L 8ee	.
8G# 8g#	8e 8cc#	.
8BJ 8g#	8eJ 8b	.
=12	=12	=12
8BBBL 8BB	8r	.
8BB 8B	8AL 8d# 8f#	.
8BBJ 8B	8AJ 8d# 8f##X	.
8BBL 8B	4.G# 4.dn 4.f#X 4.g#	.
8BB#X 8B#X	.	.
8GG#J 8G#	.	.
=13	=13	=13
*	*^	*
8CCC#L 8CC#	8rc	8raa	.
8A 8c# 8a	4g# 4cc#	8gg#L	.
8EJ 8e	.	8eeJ	.
8AL 8c# 8a	4f##X 4cc#	8ff##XL	.
8D#XJ 8d#X	.	8dd#XJ	.
8r	8d#	8raa	.
=14	=14	=14	=14
*^	*	*	*
4.rEE	8CCC#L 8CC#	4.e	8raa	.
.	8E 8c#	.	8g#L 8ee	.
.	8G#J 8g#	.	8eJ 8cc#	.
8F##XL	4.c#	4.e	8a#XL	.
8G#J	.	.	8g#	.
8rEE	.	.	8c#J	.
*v	*v	*	*	*
=15	=15	=15	=15
8CCC#L 8CC#	8rc	8raa	.
8Dn 8F#X 8dn	4c# 4f#	8cc#L	.
8AAJ 8A	.	8aJ	.
8CCC#L 8CC#	8rc	8raa	.
8D 8F# 8d	4B#X 4f#	8b#XL	.
8GG#J 8G#	.	8g#J	.
=16	=16	=16	=16
*^	*	*	*
4.rEE	8CCC#L 8CC#	4.rc	8raa	.
.	8AA 8F#	.	8c#L 8a	.
.	8C#J 8c#	.	8AJ 8f#	.
8BB#XL	4.F#	4.A	8d#XL	.
8C#	.	.	8c#	.
8C#J	.	.	8c#J	.
=17	=17	=17	=17	=17
8FF#	4.C#	8F# 8A	4.c#	.
8rEE	.	8rc	.	.
8rEE	.	8rc	.	.
8EE	[4.C#	8E 8A 8e	[4.c#	.
8rEE	.	8rc	.	.
8rEE	.	8rc	.	.
=18	=18	=18	=18	=18
4.rEE	4.C#]	4.rc	4.c#]	.
8DD#	[4.C#	8A 8f#	[4.c#	.
8rEE	.	8rc	.	.
8rEE	.	8rc	.	.
*	*	*v	*v	*
=19	=19	=19	=19
8CCC#L	2.C#_	2.c#_	.
8CC#	.	.	.
8GG#J	.	.	.
8EL	.	.	.
8G#	.	.	.
8c#J	.	.	.
=20	=20	=20	=20
4.g#	4.C#]	4.c#]	.
4rEE	4rc	4r	.
8rEE	8rc	8r	.
*v	*v	*	*
==	==	==
*-	*-	*-
!!!system-decoration: {(*)}
!!!ENC: Bryan Jacob Bell
!!!END: November 2021 to April 2022
!!!PED: Günter Philipp
!!!PTL: Ausgewählte Klavierwerke (Edition Peters)
